X:390
T:Miss Oliphant
T:Miss Amelia Eliphant Gask
T:Miss Amelia Oliphant Gask
B:The Skye Collection (1887)
N:"A favourite tune in Skye"
Z:Nigel Gatherer
M:4/4
L:1/8
K:D
d|A<FF>D EDEF|A<F F>A BABd|A<F F>D EDEF|DBA,B D2 D:|
z|d/e/f/g/ a2 g<f dd|f<g f<a f<e de/f/|a>baf f<e de/f/|dBAB d2 d2|
d/e/f/g/ a2 g<f dd|f<g f<a f<e de/f/|dBBa AFEF|DBA,B D2 D|]
<end>
<start>
